X:4352
T:Montagnarde de St. Nectaire
O:england
C:Les Brayauds: Couleurs
M:3/8
L:1/8
K:C
ded|c/B/c2|~def|g/a/gf|\
ded|c/B/c2|~def|g3:|
|:gg/a/g/f/|ed2|Gcd|c/B/cd|\
gg/a/g/f/|ed2|GAB|c3:|


